X:234
T:Apprentice Lads of Alnwick, The
T:The Lads of Alnwick
B:The Master Piper (1995)
N:from the Dixon manuscript 1733
Z:Nigel Gatherer
M:3/2
L:1/8
K:D
a4 e2 fg agfe|c2 A2 e2 A2 cdec|a4 e2 fg agfe|d2 B2 f2 B2 d2 f2:|
ABcd e2 c2 e2 c2|ABcd e2 c2 e2 a2|ABcd e2 c2 e2 c2|Bcde f2 B2 d2 f2:|
e2 a2 cdec a2 c2|af a2cd e2 af a2|e2 a2 cdec a2 c2|Bcde f2 B2 d2 f2:|
ABcd efed cdec|efed cdec e2 a2|ABcd efed cdec|Bcde f2 B2 d2 f2:|
ceae ceae ceae|ceae a2 c2 e2 a2|ceae ceae ceae|Bcde f2 B2 d2 f2:|
<end>
<start>
